app/img/icomoon/zoom.svg

<svg width="28" height="14" viewBox="0 0 28 14" fill="none" xmlns="http://www.w3.org/2000/svg">
<path fill-rule="evenodd" clip-rule="evenodd" d="M19.4466 2.85319C18.9115 1.3895 17.4001 0.338758 15.6348 0.345173H1.37484C0.972174 0.345173 0.645508 0.64384 0.645508 1.00784V9.99451C0.653508 12.0265 2.46017 13.6612 4.66418 13.6545H18.9215C19.3255 13.6545 19.6535 13.3545 19.6535 12.9905V4.00384C19.6514 3.60294 19.5793 3.21742 19.448 2.85689L19.4466 2.85319ZM17.6535 4.01024C17.6469 3.24311 16.9043 2.34057 15.6421 2.34516L15.6348 2.34519L2.64551 2.34517V9.98962C2.65043 10.7543 3.38937 11.6584 4.65813 11.6545L4.66418 11.6545L17.6535 11.6545V4.01024ZM26.4482 13.4358C26.8708 13.7278 27.3548 13.8252 27.3548 13.0238V0.97584C27.3548 0.27184 26.9588 0.174507 26.4482 0.56384L20.5602 4.51451V9.49317L26.4482 13.4358ZM22.5602 8.42542L25.3548 10.2968V3.70592L22.5602 5.58105V8.42542Z" fill="white"/>
</svg>

<svg width="28" height="14" fill="none" xmlns="http://www.w3.org/2000/svg"><path fill-rule="evenodd" clip-rule="evenodd" d="M19.447 2.853C18.912 1.39 17.4.34 15.635.345H1.375c-.403 0-.73.299-.73.663v8.987c.009 2.032 1.815 3.666 4.02 3.66h14.257c.404 0 .732-.3.732-.664V4.004a3.395 3.395 0 00-.206-1.147l-.001-.004zM17.654 4.01c-.007-.767-.75-1.67-2.012-1.665H2.645V9.99c.005.764.744 1.668 2.013 1.665h12.996V4.01zm8.794 9.426c.423.292.907.39.907-.412V.976c0-.704-.396-.801-.907-.412l-5.888 3.95v4.98l5.888 3.942zm-3.888-5.01l2.795 1.87v-6.59L22.56 5.58v2.844z" fill="#fff"/></svg>
